svg/UnitedNationsOCHA-Humanitarian/telecommunications_e-mail_icon_box.svg

<svg xmlns="http://www.w3.org/2000/svg" viewBox="0 0 32 32" enable-background="new 0 0 32 32"><path fill="#407cca" d="m25.6 0h-19.2c-3.52 0-6.4 2.88-6.4 6.4v19.2c0 3.52 2.88 6.4 6.4 6.4h19.2c3.521 0 6.4-2.88 6.4-6.4v-19.2c0-3.52-2.88-6.4-6.4-6.4m2.4 27.604h-24v-14.25l12-8.959 11.999 8.958v14.251m-11.999-8.833l10.48 8.113h-20.962l10.482-8.113m-3.32-7.983c-.354.647-.53 1.344-.53 2.09 0 .682.155 1.313.466 1.891.313.578.786 1.016 1.427 1.313.637.297 1.395.444 2.275.444.905 0 1.675-.175 2.306-.525.55-.31.958-.731 1.224-1.272h-.849c-.279.356-.648.619-1.106.797-.459.178-1.01.266-1.641.266-.659 0-1.245-.106-1.758-.315-.511-.212-.908-.547-1.193-1.01-.281-.459-.425-.972-.425-1.531 0-.578.126-1.135.38-1.666.258-.534.634-.95 1.134-1.24.501-.297 1.112-.444 1.834-.444.848 0 1.511.222 1.986.659.474.444.709.991.709 1.644 0 .365-.084.719-.253 1.059-.167.337-.386.613-.657.813-.202.156-.366.231-.496.231-.042 0-.079-.016-.109-.05-.031-.034-.045-.081-.045-.15 0-.053.019-.168.057-.35l.603-2.862h-1.055l-.102.444c-.225-.363-.575-.544-1.048-.544-.666 0-1.209.316-1.636.944-.352.516-.527 1.084-.527 1.712 0 .503.147.91.438 1.216.291.303.656.456 1.099.456.409 0 .773-.153 1.086-.456.036.15.112.262.224.34.112.078.278.116.498.116.82 0 1.491-.347 2.02-1.038.417-.55.627-1.162.627-1.84 0-.569-.14-1.094-.413-1.575-.276-.481-.673-.85-1.195-1.112-.521-.259-1.118-.391-1.787-.391-.792 0-1.494.163-2.108.487-.618.319-1.103.804-1.456 1.448m3.81 2.212c-.102.313-.224.55-.364.712-.098.113-.2.197-.301.25-.133.075-.273.113-.425.113-.203 0-.372-.082-.511-.241-.136-.16-.203-.406-.203-.744 0-.253.048-.544.147-.872.098-.328.245-.578.439-.756.195-.178.406-.266.634-.266.212 0 .389.082.528.244.141.16.211.391.211.691 0 .269-.054.559-.155.869m-2.789 6.575l-8.855 6.853v-12.79l8.855 5.937m4.597 0l8.854-5.938v12.79l-8.854-6.852"/></svg>

<?xml version="1.0" encoding="utf-8"?>
<!-- Generator: Adobe Illustrator 16.0.3, SVG Export Plug-In . SVG Version: 6.00 Build 0)  -->
<!DOCTYPE svg PUBLIC "-//W3C//DTD SVG 1.1//EN" "http://www.w3.org/Graphics/SVG/1.1/DTD/svg11.dtd">
<svg version="1.1" id="Layer_1" xmlns="http://www.w3.org/2000/svg" xmlns:xlink="http://www.w3.org/1999/xlink" x="0px" y="0px"
	 width="32px" height="32px" viewBox="0 0 32 32" enable-background="new 0 0 32 32" xml:space="preserve">
<path fill="#407CCA" d="M25.6,0H6.4C2.88,0,0,2.88,0,6.4v19.2C0,29.12,2.88,32,6.4,32h19.2c3.521,0,6.4-2.88,6.4-6.4V6.4
	C32,2.88,29.12,0,25.6,0z M28,27.604H4v-14.25l12.001-8.959L28,13.353V27.604z M16.001,18.771l10.48,8.113H5.519L16.001,18.771z
	 M12.681,10.788c-0.354,0.647-0.53,1.344-0.53,2.09c0,0.682,0.155,1.313,0.466,1.891c0.313,0.578,0.786,1.016,1.427,1.313
	c0.637,0.297,1.395,0.444,2.275,0.444c0.905,0,1.675-0.175,2.306-0.525c0.55-0.31,0.958-0.731,1.224-1.272H19
	c-0.279,0.356-0.648,0.619-1.106,0.797c-0.459,0.178-1.006,0.266-1.641,0.266c-0.659,0-1.245-0.106-1.758-0.315
	c-0.511-0.212-0.908-0.547-1.193-1.009c-0.281-0.459-0.425-0.972-0.425-1.531c0-0.578,0.126-1.135,0.38-1.666
	c0.258-0.534,0.634-0.95,1.134-1.24c0.501-0.297,1.112-0.444,1.834-0.444c0.848,0,1.511,0.222,1.986,0.659
	c0.474,0.444,0.709,0.991,0.709,1.644c0,0.365-0.084,0.719-0.253,1.059c-0.167,0.337-0.386,0.613-0.657,0.813
	c-0.202,0.156-0.366,0.231-0.496,0.231c-0.042,0-0.079-0.016-0.109-0.05c-0.031-0.034-0.045-0.081-0.045-0.15
	c0-0.053,0.019-0.168,0.057-0.35l0.603-2.862h-1.055l-0.102,0.444c-0.225-0.363-0.575-0.544-1.048-0.544
	c-0.666,0-1.209,0.316-1.636,0.944c-0.352,0.516-0.527,1.084-0.527,1.712c0,0.503,0.147,0.91,0.438,1.216
	c0.291,0.303,0.656,0.456,1.099,0.456c0.409,0,0.773-0.153,1.086-0.456c0.036,0.15,0.112,0.262,0.224,0.34
	c0.112,0.078,0.278,0.116,0.498,0.116c0.82,0,1.491-0.347,2.016-1.038c0.417-0.55,0.627-1.162,0.627-1.84
	c0-0.569-0.14-1.094-0.413-1.575c-0.276-0.481-0.673-0.85-1.195-1.112c-0.521-0.259-1.118-0.391-1.787-0.391
	c-0.792,0-1.494,0.163-2.108,0.487C13.519,9.659,13.034,10.144,12.681,10.788z M16.491,13c-0.102,0.313-0.224,0.55-0.364,0.712
	c-0.098,0.113-0.2,0.197-0.301,0.25c-0.133,0.075-0.273,0.113-0.425,0.113c-0.203,0-0.372-0.082-0.511-0.241
	c-0.136-0.16-0.203-0.406-0.203-0.744c0-0.253,0.048-0.544,0.147-0.872c0.098-0.328,0.245-0.578,0.439-0.756
	c0.195-0.178,0.406-0.266,0.634-0.266c0.212,0,0.389,0.082,0.528,0.244c0.141,0.16,0.211,0.391,0.211,0.691
	C16.646,12.4,16.592,12.69,16.491,13z M13.702,19.575l-8.855,6.853v-12.79L13.702,19.575z M18.299,19.575l8.854-5.938v12.79
	L18.299,19.575z"/>
</svg>
